X: 21191
T: Katie Scollard's
R: slide
M: 12/8
K: Dmixolydian
|:F|A2 D F2 D A2 D G2 B|A2 D FED GFG Bcd|
A2 D F2 D A2 D GG/A/B|A^GA =GFE D3 D2:|
|:A|d2 c A2 d c2 A G2 e|d2 c A2 c d3 e3|
d2 c A2 d cBA G2 c|A^GA =GFE D3 D2:|

